X:45
T:Heart Of Oak. Le4.045
B:L.Leadley MS#4 c1850
Z:Village Music Project, 2016 Steve Mansfield
M:C
L:1/8
Q:2/4=60
N: * d2cB A2c2A in Ms
N: ** f2ge f2c2A in Ms
N: *** e2dE A2e2e2 in Ms
N: **** ddA2 AFzA2 in Ms
K:D
A | d2dd d2fe | "*" d2cB A2cA | B2Bc d2de | f2ge f2cA |
d2 FG A2Bc | d2FG A2ze | f2ed a2cd | "***" e2dE A2ee |
e2cd e2ee | f2de f2zf | edcf dBz2 | "****" ddA2 AFz A |
Bcde f2ed | a2Ac d2 :|

